public/images/logo.svg

<svg xmlns="http://www.w3.org/2000/svg" xmlns:xlink="http://www.w3.org/1999/xlink" width="553" height="528" fill="none" xmlns:v="https://vecta.io/nano"><style><![CDATA[.B{stroke:#000}.C{fill:#c4c4c4}.D{stroke-width:8}.E{stroke-width:7}]]></style><path d="M123.642 4.053c-2.5 13.5-3.5 43.5 0 52.5 2.954 7.596 39.594 218.367 50 282.999 83.859-23.385 127.238-19.095 184.238 14.363C438.131 205.885 472.221 53.971 460.642 34.554c-11.804-19.795 32.76 13.544 35.5 37s11.5 64.501 11.5 64.501 25 147.999-71.5 288.999L408 454l-16 11.553H150l-53.358-23 3.5-25.5-8.5-6.5c-22.126-43.087-38.821-211-36.41-216.5s3.41-113.999 20.41-142.999 40.676-48.204 48-47z" fill="#fca808"/><path d="M173.642 356.053s1.923-4.555 0-16.5m0 0c-10.406-64.632-47.046-275.403-50-282.999-3.5-9-2.5-39 0-52.5-7.324-1.203-31 18-48 47s-18 137.499-20.41 142.999 14.285 173.413 36.41 216.5l8.5 6.5-3.5 25.5 53.358 23h242L408 454l28.142-28.947c96.5-141 71.5-288.999 71.5-288.999s-8.76-41.044-11.5-64.5-47.304-56.795-35.5-37-23.855 177.295-107.5 328m-179.5-23c85.209-23.762 128.624-18.95 187 16.001" class="B E"/><mask id="A" mask-type="alpha" maskUnits="userSpaceOnUse" x="0" y="6" width="553" height="522"><path d="M549 267c0 141.723-121.782 257-272.5 257S4 408.723 4 267 125.782 10 276.5 10 549 125.277 549 267z" fill="#49c500" class="B D"/></mask><g mask="url(#A)"><use xlink:href="#H" fill="#49c500" class="B D"/><path transform="rotate(3.417 287.537 -28)" fill="#fff" d="M287.537-28h350v613h-350z"/><use xlink:href="#H" class="B D"/><path d="M123.642 2.054c-2.5 13.5-3.5 43.5 0 52.5 2.954 7.596 39.594 218.367 50 282.999 83.859-23.385 127.238-19.095 184.238 14.363C438.131 203.885 472.221 51.971 460.642 32.554c-11.804-19.795 32.76 13.544 35.5 37s11.5 64.501 11.5 64.501 25 147.999-71.5 288.999v40.5 64l-336-5L98 462.5c-8.5-4 .228-45.797 0-47.5s-6.358-6.447-6.358-6.447c-22.126-43.087-38.821-211-36.41-216.5s3.41-113.999 20.41-142.999 40.676-48.204 48-47z" fill="#fca808"/><path d="M175.5 351s.065-1.502-1.858-13.447m0 0c-10.406-64.632-47.046-275.403-50-282.999-3.5-9-2.5-39 0-52.5-7.324-1.203-31 18-48 47s-18 137.499-20.41 142.999 14.285 173.413 36.41 216.5c0 0 6.13 4.744 6.358 6.447s-8.5 43.5 0 47.5l2.142 60.053 336 5v-64-40.5c96.5-141 71.5-288.999 71.5-288.999s-8.76-41.044-11.5-64.5-47.304-56.795-35.5-37-23.855 177.295-107.5 328m-179.5-23c85.209-23.762 128.624-18.95 187 16.001" class="B E"/><path d="M236.142 207.553l-31.5 10.5v8.5l25 64.5 17-6-10.5-77.5zm23.5 69l-4.5-100h42l-17.5 103.5-20-3.5zm37.5 8.5l14-83.5 31 9-27 80.5-18-6z" fill="#fce60e"/><path d="M236.142 207.553l-31.5 10.5v8.5l25 64.5 17-6-10.5-77.5zm23.5 69l-4.5-100h42l-17.5 103.5-20-3.5zm37.5 8.5l14-83.5 31 9-27 80.5-18-6z" class="B E"/><mask id="B" mask-type="alpha" maskUnits="userSpaceOnUse" x="-61" y="324" width="694" height="293"><path d="M-61 324h694v293H-61z" class="C"/></mask><g mask="url(#B)" class="B D"><use xlink:href="#H"/></g></g><path d="M255.651 490.961a3 3 0 0 1-4.779-.169l-21.54-30.621c-1.426-2.028.083-4.812 2.56-4.724l45.194 1.601c2.477.088 3.785 2.972 2.219 4.894l-23.654 29.019z" fill="#000"/><mask id="C" mask-type="alpha" maskUnits="userSpaceOnUse" x="145" y="428" width="62" height="24"><path transform="rotate(355.084 145 433.142)" d="M145 433.142h60v18h-60z" class="C"/></mask><g mask="url(#C)"><ellipse cx="177.203" cy="457.472" rx="32" ry="27" transform="rotate(355.084 177.203 457.472)" fill="#000"/></g><mask id="D" mask-type="alpha" maskUnits="userSpaceOnUse" x="146" y="445" width="62" height="25"><path transform="rotate(175.084 207.864 463.868)" d="M207.864 463.868h60v18h-60z" class="C"/></mask><g mask="url(#D)"><ellipse cx="175.661" cy="439.538" rx="32" ry="27" transform="rotate(175.084 175.661 439.538)" fill="#000"/></g><mask id="E" mask-type="alpha" maskUnits="userSpaceOnUse" x="310" y="435" width="62" height="23"><path transform="rotate(3.852 311.709 435.53)" d="M311.709 435.53h60v18h-60z" class="C"/></mask><g mask="url(#E)"><ellipse cx="339.827" cy="464.484" rx="32" ry="27" transform="rotate(3.852 339.827 464.484)" fill="#000"/></g><mask id="F" mask-type="alpha" maskUnits="userSpaceOnUse" x="309" y="453" width="62" height="23"><path transform="rotate(183.852 369.155 475.479)" d="M369.155 475.479h60v18h-60z" class="C"/></mask><g mask="url(#F)"><ellipse cx="341.037" cy="446.525" rx="32" ry="27" transform="rotate(183.852 341.037 446.525)" fill="#000"/></g><defs ><path id="H" d="M549 267c0 141.723-121.782 257-272.5 257S4 408.723 4 267 125.782 10 276.5 10 549 125.277 549 267z"/></defs></svg>

<svg id="eh930wKWDvA1" xmlns="http://www.w3.org/2000/svg" xmlns:xlink="http://www.w3.org/1999/xlink" viewBox="0 0 553 528" shape-rendering="geometricPrecision" text-rendering="geometricPrecision"><style><![CDATA[#eh930wKWDvA12_to {animation: eh930wKWDvA12_to__to 2000ms linear infinite normal forwards}@keyframes eh930wKWDvA12_to__to { 0% {transform: translate(272.286965px,231.135748px)} 10% {transform: translate(272.286965px,231.135748px)} 55% {transform: translate(272.115932px,194.839567px)} 60% {transform: translate(273.391998px,201.167218px)} 100% {transform: translate(273.391998px,233.802979px)}}]]></style><defs><path id="eh930wKWDvA2" d="M549,267C549,408.723,427.218,524,276.5,524C125.782,524,4,408.723,4,267C4,125.277,125.782,10,276.5,10C427.218,10,549,125.277,549,267Z"/></defs><path id="eh930wKWDvA3" d="M123.642,4.053C121.142,17.553,120.142,47.553,123.642,56.553C126.596,64.149,163.236,274.92,173.642,339.552C257.501,316.167,300.88,320.457,357.88,353.915C438.131,205.885,472.221,53.971,460.642,34.554C448.838,14.759,493.402,48.098,496.142,71.554C498.882,95.01,507.642,136.055,507.642,136.055C507.642,136.055,532.642,284.054,436.142,425.054L408,454L392,465.553L150,465.553L96.642,442.553L100.142,417.053L91.642,410.553C69.516,367.466,52.821,199.553,55.232,194.053C57.643,188.553,58.642,80.054,75.642,51.054C92.642,22.054,116.318,2.85,123.642,4.054Z" fill="rgb(252,168,8)" stroke="none" stroke-width="1"/><path id="eh930wKWDvA4" d="M173.642,356.053C173.642,356.053,175.565,351.498,173.642,339.553M173.642,339.553C163.236,274.921,126.596,64.15,123.642,56.554C120.142,47.554,121.142,17.554,123.642,4.054C116.318,2.851,92.642,22.054,75.642,51.054C58.642,80.054,57.642,188.553,55.232,194.053C52.822,199.553,69.517,367.466,91.642,410.553L100.142,417.053L96.642,442.553L150,465.553L392,465.553L408,454L436.142,425.053C532.642,284.053,507.642,136.054,507.642,136.054C507.642,136.054,498.882,95.01,496.142,71.554C493.402,48.098,448.838,14.759,460.642,34.554C472.446,54.349,436.787,211.849,353.142,362.554M173.642,339.554C258.851,315.792,302.266,320.604,360.642,355.555" fill="none" stroke="rgb(0,0,0)" stroke-width="7"/><g id="eh930wKWDvA5" mask="url(#eh930wKWDvA19)"><g id="eh930wKWDvA6"><use id="eh930wKWDvA7" width="545" height="514" xlink:href="#eh930wKWDvA2" fill="rgb(73,197,0)" stroke="rgb(0,0,0)" stroke-width="8"/><path id="eh930wKWDvA8" d="M287.537,-28L637.537,-28L637.537,585L287.537,585Z" transform="matrix(0.998222 0.059603 -0.059603 0.998222 -1.15768 -17.1877)" fill="rgb(255,255,255)" stroke="none" stroke-width="1"/><use id="eh930wKWDvA9" width="545" height="514" xlink:href="#eh930wKWDvA2" fill="none" stroke="rgb(0,0,0)" stroke-width="8"/><path id="eh930wKWDvA10" d="M123.642,2.054C121.142,15.554,120.142,45.554,123.642,54.554C126.596,62.15,163.236,272.921,173.642,337.553C257.501,314.168,300.88,318.458,357.88,351.916C438.131,203.885,472.221,51.971,460.642,32.554C448.838,12.759,493.402,46.098,496.142,69.554C498.882,93.01,507.642,134.055,507.642,134.055C507.642,134.055,532.642,282.054,436.142,423.054L436.142,463.554L436.142,527.554L100.142,522.554L98,462.5C89.5,458.5,98.228,416.703,98,415C97.772,413.297,91.642,408.553,91.642,408.553C69.516,365.466,52.821,197.553,55.232,192.053C57.643,186.553,58.642,78.054,75.642,49.054C92.642,20.054,116.318,0.85,123.642,2.054Z" fill="rgb(252,168,8)" stroke="none" stroke-width="1"/><path id="eh930wKWDvA11" d="M175.5,351C175.5,351,175.565,349.498,173.642,337.553M173.642,337.553C163.236,272.921,126.596,62.15,123.642,54.554C120.142,45.554,121.142,15.554,123.642,2.054C116.318,0.851,92.642,20.054,75.642,49.054C58.642,78.054,57.642,186.553,55.232,192.053C52.822,197.553,69.517,365.466,91.642,408.553C91.642,408.553,97.772,413.297,98,415C98.228,416.703,89.5,458.5,98,462.5L100.142,522.553L436.142,527.553L436.142,463.553L436.142,423.053C532.642,282.053,507.642,134.054,507.642,134.054C507.642,134.054,498.882,93.01,496.142,69.554C493.402,46.098,448.838,12.759,460.642,32.554C472.446,52.349,436.787,209.849,353.142,360.554M173.642,337.554C258.851,313.792,302.266,318.604,360.642,353.555" fill="none" stroke="rgb(0,0,0)" stroke-width="7"/><g id="eh930wKWDvA12_to" transform="translate(272.286965,231.135748)"><path id="eh930wKWDvA12" d="M236.142,207.553L204.642,218.053L204.642,226.553L229.642,291.053L246.642,285.053L236.142,207.553ZM259.642,276.553L255.142,176.553L297.142,176.553L279.642,280.053L259.642,276.553ZM297.142,285.053L311.142,201.553L342.142,210.553L315.142,291.053L297.142,285.053Z" transform="translate(-273.391998,-233.802979)" fill="rgb(252,230,14)" stroke="none" stroke-width="1"/></g><path id="eh930wKWDvA13" d="M236.142,207.553L204.642,218.053L204.642,226.553L229.642,291.053L246.642,285.053L236.142,207.553ZM259.642,276.553L255.142,176.553L297.142,176.553L279.642,280.053L259.642,276.553ZM297.142,285.053L311.142,201.553L342.142,210.553L315.142,291.053L297.142,285.053Z" transform="matrix(1 0 0 1 0 -5)" fill="none" stroke="rgb(0,0,0)" stroke-width="7"/><g id="eh930wKWDvA14" mask="url(#eh930wKWDvA17)"><g id="eh930wKWDvA15"><use id="eh930wKWDvA16" width="545" height="514" xlink:href="#eh930wKWDvA2" fill="none" stroke="rgb(0,0,0)" stroke-width="8"/></g><mask id="eh930wKWDvA17" mask-type="alpha"><path id="eh930wKWDvA18" d="M-61,324L633,324L633,617L-61,617Z" fill="rgb(196,196,196)" stroke="none" stroke-width="1"/></mask></g></g><mask id="eh930wKWDvA19" mask-type="alpha"><path id="eh930wKWDvA20" d="M549,267C549,408.723,427.218,524,276.5,524C125.782,524,4,408.723,4,267C4,125.277,125.782,10,276.5,10C427.218,10,549,125.277,549,267Z" fill="rgb(73,197,0)" stroke="rgb(0,0,0)" stroke-width="8"/></mask></g><path id="eh930wKWDvA21" d="M255.651,490.961C255.057761,491.688877,254.157935,492.096997,253.219513,492.063812C252.281091,492.030626,251.412341,491.559964,250.872,490.792L229.332,460.171C227.906,458.143,229.415,455.359,231.892,455.447L277.086,457.048C279.563,457.136,280.871,460.02,279.305,461.942L255.651,490.961Z" fill="rgb(0,0,0)" stroke="none" stroke-width="1"/><g id="eh930wKWDvA22" mask="url(#eh930wKWDvA25)"><g id="eh930wKWDvA23"><ellipse id="eh930wKWDvA24" rx="32" ry="27" transform="matrix(0.996321 -0.085695 0.085695 0.996321 177.203021 457.471934)" fill="rgb(0,0,0)" stroke="none" stroke-width="1"/></g><mask id="eh930wKWDvA25" mask-type="alpha"><path id="eh930wKWDvA26" d="M145,433.142L205,433.142L205,451.142L145,451.142Z" transform="matrix(0.996321 -0.085695 0.085695 0.996321 -36.5847 14.0191)" fill="rgb(196,196,196)" stroke="none" stroke-width="1"/></mask></g><g id="eh930wKWDvA27" mask="url(#eh930wKWDvA30)"><g id="eh930wKWDvA28"><ellipse id="eh930wKWDvA29" rx="32" ry="27" transform="matrix(-0.996321 0.085695 -0.085695 -0.996321 176.660962 439.538153)" fill="rgb(0,0,0)" stroke="none" stroke-width="1"/></g><mask id="eh930wKWDvA30" mask-type="alpha"><path id="eh930wKWDvA31" d="M207.864,463.868L267.864,463.868L267.864,481.868L207.864,481.868Z" transform="matrix(-0.996321 0.085695 -0.085695 -0.996321 454.715 908.217)" fill="rgb(196,196,196)" stroke="none" stroke-width="1"/></mask></g><g id="eh930wKWDvA32" mask="url(#eh930wKWDvA35)"><g id="eh930wKWDvA33"><ellipse id="eh930wKWDvA34" rx="32" ry="27" transform="matrix(0.997741 0.067179 -0.067179 0.997741 339.827241 464.483839)" fill="rgb(0,0,0)" stroke="none" stroke-width="1"/></g><mask id="eh930wKWDvA35" mask-type="alpha"><path id="eh930wKWDvA36" d="M311.709,435.53L371.709,435.53L371.709,453.53L311.709,453.53Z" transform="matrix(0.997741 0.067179 -0.067179 0.997741 29.9628 -19.9565)" fill="rgb(196,196,196)" stroke="none" stroke-width="1"/></mask></g><g id="eh930wKWDvA37" mask="url(#eh930wKWDvA40)"><g id="eh930wKWDvA38"><ellipse id="eh930wKWDvA39" rx="32" ry="27" transform="matrix(-0.997741 -0.067179 0.06718 -0.997741 341.036968 446.525234)" fill="rgb(0,0,0)" stroke="none" stroke-width="1"/></g><mask id="eh930wKWDvA40" mask-type="alpha"><path id="eh930wKWDvA41" d="M369.155,475.479L429.155,475.479L429.155,493.479L369.155,493.479Z" transform="matrix(-0.997741 -0.067179 0.06718 -0.997741 705.534 974.684)" fill="rgb(196,196,196)" stroke="none" stroke-width="1"/></mask></g></svg>
